!!!!SEGMENT: pl-wtm--r-237-m_moniuszko-stanislaw--aniolek.krn
!!!cenid: 18xx:1643
!!!COM: Moniuszko, Stanisław
!!!COM-rismID: pe30008351
!!!CDT: 1819/05/05-1872/06/04
!!!CNT: Polish
!!!OTL: Aniołek
!!!PDT:
!!!AGN: Secular
!!!SMS-siglum: PL-Wtm
!!!SMS-shelfmark: R 237/M
!!!SMS-shelfwork: W
!!!SMS-variant:
!!!SMS-altvar:
!!!NIFC-rismSourceID: 1001063772
!!!NIFC-islandoraID:
!!!URL-pdf-islandora:
!!!URL-scan:
!!!ONB-nifc:
!!!AIN: 1 empty 1 vox
!!!key:
**kern	**kern	**fing	**dynam	**kern	**text	**text	**dynam
*part2	*part2	*part2	*part2	*part1	*part1	*part1	*part1
*staff3	*staff2	*staff2	*	*staff1	*staff1	*staff1	*
*Iempty	*Iforte	*	*	*Ivox	*	*	*
*I"	*I"[Fortepian]	*	*	*I"[Głos]	*	*	*
*I'	*I'pf	*	*	*I'V	*	*	*
*clefF4	*clefG2	*	*	*clefG2	*	*	*
*k[b-]	*k[b-]	*	*	*k[b-]	*	*	*
*F:	*F:	*	*	*F:	*	*	*
*M2/4	*M2/4	*	*	*M2/4	*	*	*
=1	=1	=1	=1	=1	=1	=1	=1
!!LO:TX:t=P:problem:all\right:global
*ped	*	*	*	*	*	*	*
*2\right	*	*	*	*	*	*	*
!	!	!	!	!LO:TX:a:i:u:t=No 18. Aniołek.	!	!	!
!	!	!	!LO:DY:t=pp.	!	!	!	!
N(>2F\	4ryy	.	pp >	2r	.	.	.
.	4qqc</	.	.	.	.	.	.
.	4qqf\	.	.	.	.	.	.
.	4qqa\	.	.	.	.	.	.
.	4qqcc\	.	.	.	.	.	.
.	4qqff\	.	.	.	.	.	.
.	4qqgg\	.	.	.	.	.	.
.	4aa;\N)	.	]]	.	.	.	.
=2!|:	=2!|:	=2!|:	=2!|:	=2!|:	=2!|:	=2!|:	=2!|:
!	!	!	!LO:DY:t=p.	!	!	!	!
8F\	8r	.	p	8a/	Snil	Ma-	.
8r	(16A:/LL 16c: 16f: 16a:	.	.	16a/LL	mi	-ly	.
.	16d/JJ 16b-	.	.	16b-/JJ	.	.	.
8C/	8c'/L) 8a	.	.	8.a/	się	a-	.
8r	8B-:/J 8c: 8e: 8g:	.	.	.	.	.	.
.	.	.	.	16g/	a-	-nio-	.
=3	=3	=3	=3	=3	=3	=3	=3
8FF/	8r	.	.	8g/	-nio-	-łe-	.
8r	8A:/ 8c: 8f:	.	.	8f/	-lek,	-czek,	.
8F\	8r	.	.	4r	.	.	.
8r	8A:/ 8c: 8f: 8a:	.	.	.	.	.	.
=4	=4	=4	=4	=4	=4	=4	=4
8FF/	8r	.	.	8cc\	Kie-	gdy	.
!	!	!	!	!LO:TX:a:i:u:t=Ed. Wasilewskiego.	!	!	!
8r	8f/ 8a 8cc	.	.	8cc\	-dy	na	.
(4F\	8r	.	.	8.ff\	dzie-	zie-	.
.	8d/ 8f 8b- 8dd	.	.	.	.	.	.
.	.	.	.	16ee\	-ckiem	-mię	.
=5	=5	=5	=5	=5	=5	=5	=5
8FF/)	8r	.	.	8cc\	by-	spły-	.
8r	((4f^/ 4a 4cc	.	.	8a\	-łem	-nąl,	.
(4C/	.	.	.	4r	.	.	.
.	8c/)) 8f 8a	.	.	.	.	.	.
!!LO:LB:g=original
=6	=6	=6	=6	=6	=6	=6	=6
8CC/)	8r	.	.	8g/	jak	jak	.
8r	(16B-:/LL 16e: 16g:	.	.	16g/LL	na	do	.
.	16c/JJ 16a	.	.	16a/JJ	.	.	.
(4C/	8B-'/L) 8g	.	.	8g/	ca-	słoń-	.
.	8A:/J 8c: 8d#X: 8f#X:	.	.	8f#X/	-cko	-ca	.
=7	=7	=7	=7	=7	=7	=7	=7
8CC/)	8r	.	.	8g/	dzie-	li-	.
8r	8B-/ 8c 8e 8g	.	.	8c/	-cię	-lja	.
(4C/	8r	.	.	4r	.	.	.
.	8Bn:/ 8d: 8f: 8g#X:	.	.	.	.	.	.
=8	=8	=8	=8	=8	=8	=8	=8
8CC/)	8r	.	.	8a/	w_a-	li-	.
8r	(16c:/LL 16e: 16cc:	.	.	16a/LL	-nioł-	-ste-	.
.	16d/JJ 16b-	.	.	16b-/JJ	.	.	.
(4CC/ 4C	8c'/L) 8a	.	.	8.a/	-ka	-czki	.
.	8B-:/J 8c: 8e: 8g:	.	.	.	.	.	.
.	.	.	.	16g/	pa-	roz-	.
=9	=9	=9	=9	=9	=9	=9	=9
8FF/)	8r	.	.	8g/	-trzy-	-wi-	.
8r	8A/ 8c 8f	.	.	8f/	-łem.	-nął.	.
8F\	8r	.	.	4r	.	.	.
8r	8A/ 8c 8f 8a	.	.	.	.	.	.
=10	=10	=10	=10	=10	=10	=10	=10
*	*^	*	*	*	*	*	*
!	!	!	!	!	!	!	!	!LO:DY:a
8FF/ 8F	8r	8rFyy	.	.	8cc\	Pa-	Roz-	<
8r	8a/L 8cc	8f\	.	.	8cc\	-trzy-	-wi-	.
!	!	!	!	!	!	!	!	!LO:DY:a
8F\	8.dd^</ 8.ff	8r	.	.	8.ff\	-łem	-nął	[ >
8r	.	8f\	.	.	.	.	.	.
.	16b-/Jk 16dd	.	.	.	16dd\	w_a-	li-	]]
*	*v	*v	*	*	*	*	*	*
=11	=11	=11	=11	=11	=11	=11	=11
8F\	8a'/L 8cc	.	.	8cc\	-nioł-	ste-	.
8r	8A'/J 8f 8a	.	.	8a/	-ka	-czki	.
((4FF#X/ 4F#X	8r	.	.	4r	.	.	.
.	8c/ 8d 8a	.	.	.	.	.	.
!!LO:LB:g=original
=12	=12	=12	=12	=12	=12	=12	=12
!LO:TX:t=P:problem=brak zakończenia łuku	!	!	!	!	!	!	!LO:DY:a
8GG/)) 8G	8r	.	.	8b-\	co	i	p
8r	(16B-:/LL 16d: 16g: 16b-:	.	.	16b-\LL	ma	won-	.
.	16e-X/JJ 16cc	.	.	16cc\JJ	.	.	.
8D/	8d/L) 8b-	.	.	8.b-\	o-	-ne	.
8r	8c/J 8d 8f#X 8a	.	.	.	.	.	.
.	.	.	.	16a\	-czka	i	.
=13	=13	=13	=13	=13	=13	=13	=13
*^	*	*	*	*	*	*	*
8GG/	4ryy	8B-/ 8d 8g	.	.	8a/	śli-	kra-	.
8r	.	8r	.	.	8g/	-czne,	-sne,	.
(<4F/	8F\	8B-/ 8d-X 8f 8g	.	.	4r	.	.	.
.	8ryy	8r	.	.	.	.	.	.
*v	*v	*	*	*	*	*	*	*
=14	=14	=14	=14	=14	=14	=14	=14
8qCC/	.	.	.	.	.	.	.
*	*^	*	*	*	*	*	*
!	!	!	!	!	!	!	!	!LO:DY:a:t=pp.
8E\)	8r	4rAyy	.	.	8g/	u-	a	pp
8r	(>8B-/ 8c 8e 8g	.	.	.	8g/	-ste-	jam	.
8C\	8.b-^</L	8rc	.	.	8.b-/	-czka	so-	.
8r	.	8B-\ 8c	.	.	.	.	.	.
.	16e/Jk)	.	.	.	16e/	ró-	-bie	.
*	*v	*v	*	*	*	*	*	*
=15	=15	=15	=15	=15	=15	=15	=15
8F\	8f/L	.	.	8f/	-żo-	pa-	.
8r	8A:/J 8c: 8f: 8a:	.	.	8a/	-we,	-trzył	.
!	!	!	!	!	!	!	!LO:DY:a:t=pp.
(4AA/	8r	.	.	4r	.	.	pp
.	8c/ 8d#X 8f#X	.	.	.	.	.	.
=16	=16	=16	=16	=16	=16	=16	=16
*	*^	*	*	*	*	*	*
!	!LO:TX:b:i:t=colla parte.	!	!	!	!LO:TX:a:i:t=ralent.	!	!	!
8BB-/)	8r	4rAyy	.	.	8g/	ca-	w_je-	.
8r	(>8B-/ 8d 8g	.	.	.	8g/	-łe	-go	.
((4CC/ 4C	8.b-/L	8rc	.	.	8.b-/	ciał-	o-	.
.	.	8B-\ 8c	.	.	.	.	.	.
.	16e/Jk)	.	.	.	16e/	-ko	-czka	.
*	*v	*v	*	*	*	*	*	*
=17	=17	=17	=17	=17	=17	=17	=17
8FF/))	8r	.	.	8g/	mle-	ja-	.
8r	8A/ 8c 8f	.	.	8f/	-czne.	-sne.	.
4ryy	8ryy	.	>	4r;	.	.	.
.	(>4qqF<\	.	.	.	.	.	.
.	4qqc</	.	.	.	.	.	.
.	4qqf\	.	.	.	.	.	.
.	4qqa\	.	.	.	.	.	.
.	4qqcc/	.	.	.	.	.	.
.	4qqff/	.	.	.	.	.	.
.	4qqgg/	.	.	.	.	.	.
.	8aa;/)	.	]]	.	.	.	.
!!LO:LB:g=original
=18	=18	=18	=18	=18	=18	=18	=18
8F\	8r	.	.	8a/	Pa-	Ser-	.
8r	(16A:/LL 16c: 16f: 16a:	.	.	16a/LL	-trzy-	-ce	.
.	16d/JJ 16b-	.	.	16b-/JJ	.	.	.
8C/	8c/L) 8a	.	.	8.a/	-łem,	mo-	.
8r	8B-:/J 8c: 8e: 8g:	.	.	.	.	.	.
.	.	.	.	16g/	ma-	-je	.
=19	=19	=19	=19	=19	=19	=19	=19
8FF/	8r	.	.	8g/	-rzy-	bi-	.
8r	8A:/ 8c: 8f:	.	.	8f/	-łem,	-ło,	.
8F\	8r	.	.	4r	.	.	.
8r	8A:/ 8c: 8f: 8a:	.	.	.	.	.	.
=20	=20	=20	=20	=20	=20	=20	=20
8FF/	8r	.	.	8cc\	a	pa-	.
8r	8f/ 8a 8cc	.	.	8cc\	mój	-trzy-	.
(4F\	8r	.	.	8.ff\	a-	-łem,	.
.	8d/ 8f 8b- 8dd	.	.	.	.	.	.
.	.	.	.	16dd\	-nio-	ma-	.
=21	=21	=21	=21	=21	=21	=21	=21
8FF/)	8r	.	.	8cc\	-łe-	-rzy-	.
8r	(4f^/ 4a 4cc	.	.	8a/	-czek,	-łem,	.
(4C/	.	.	.	4r	.	.	.
.	8c/) 8f 8a	.	.	.	.	.	.
=22	=22	=22	=22	=22	=22	=22	=22
8CC/)	8r	.	.	8g/	nie	i	.
8r	(16B-:/LL 16e: 16g:	.	.	16a/LL	po-	du-	.
.	16c/JJ 16a	.	.	16b-/JJ	.	.	.
(4C/	8B-/L) 8g	.	.	8.g/	-glą-	-sze-	.
.	8A:/J 8c: 8d#X: 8f#X:	.	.	.	.	.	.
.	.	.	.	16f#X/	-dał	-czkę	.
=23	=23	=23	=23	=23	=23	=23	=23
8CC/)	8r	.	.	8g/	na	mo-	.
8r	8B-:/ 8c: 8e: 8g:	.	.	8c/	mnie	-ją	.
(4C/	8r	.	.	4r	.	.	.
.	8Bn:/ 8d: 8f: 8g#X:	.	.	.	.	.	.
!!LO:PB:g=original
=24	=24	=24	=24	=24	=24	=24	=24
8CC/)	8r	.	.	8a\	nie	w_a-	.
8r	(16c:/LL 16e: 16cc:	.	.	16cc\LL	po-	-nio-	.
.	16d/JJ 16b-	.	.	16b-\JJ	.	.	.
((4CC/ 4C	8c/L) 8a	.	.	8.a/	-dał	-łku	.
.	8B-:/J 8c: 8e: 8g:	.	.	.	.	.	.
.	.	.	.	16g/	u-	zgu-	.
=25	=25	=25	=25	=25	=25	=25	=25
8FF/))	8r	.	.	8g/	-ste-	-bi-	.
8r	8A/ 8c 8f	.	.	8f/	-czek;	-łem,	.
8F\	8r	.	.	4r	.	.	.
8r	8A/ 8c 8f 8a	.	.	.	.	.	.
=26	=26	=26	=26	=26	=26	=26	=26
8FF/ 8F	8r	.	<	8cc\	nie	zgu-	<
8r	8f/L 8a 8cc	.	.	8cc\	po-	-bi-	[
!LO:TX:t=P:problem=mixed beam	!	!	!	!	!	!	!
8F/L	8.dd/ 8.ff	.	[	8.ff\	-dał	-łem	>
8B->:\J 8d>: 8f>:	.	.	>]	.	.	.	.
.	16b-/Jk 16dd	.	.	16dd\	u-	w_a-	]]
=27	=27	=27	=27	=27	=27	=27	=27
*^	*	*	*	*	*	*	*
8F\	4rAAAyy	8a/L 8cc	.	.	8cc\	-ste-	-nioł-	.
8r	.	8c/J 8a	.	.	8a/	-czek,	-ku	.
(4F#X/	8DD\ 8F#	8r	.	.	4r	.	.	.
.	8rBB	8c/ 8d 8a	.	.	.	.	.	.
*v	*v	*	*	*	*	*	*	*
=28	=28	=28	=28	=28	=28	=28	=28
8AA/) 8G	8r	.	.	8b-\	jak	co	.
8r	(16B-:/LL 16d: 16g: 16b-:	.	.	16b-\LL	wie-	ja-	.
.	16e-X/JJ 16cc	.	.	16cc\JJ	.	.	.
8D/	8d/L) 8b-	.	.	8.b-\	-trzyk	-śniał	.
8r	8c:/J 8d: 8f#X: 8a:	.	.	.	.	.	.
.	.	.	.	16a/	u-	tam	.
=29	=29	=29	=29	=29	=29	=29	=29
8GG/	8r	.	.	8a/	-cie-	mi-	.
8r	8B-/ 8d 8g	.	.	8g/	-kał...	-le,	.
(4F\	8r	.	.	4r	.	.	.
.	8B-/ 8d-X 8f 8g	.	.	.	.	.	.
!!LO:LB:g=original
=30	=30	=30	=30	=30	=30	=30	=30
8qCC/	.	.	.	.	.	.	.
*	*^	*	*	*	*	*	*
!	!	!	!	!	!	!	!	!LO:DY:a:t=pp.
8E\)	8r	4rFyy	.	.	8g/	a	i	pp
8r	8B-/ 8c 8e 8g	.	.	.	8g/	jam	już	.
8C\	8.b-/L	8rc	.	.	8.b-/	na	jej	.
8r	.	8B-\ 8c	.	.	.	.	.	.
.	16e/Jk	.	.	.	16e/	a-	nie	.
*	*v	*v	*	*	*	*	*	*
=31	=31	=31	=31	=31	=31	=31	=31
8F\	8f/L	.	.	8f/	-nioł-	znaj-	.
8r	8A:/J 8c: 8f: 8a:	.	.	8a/	-ka	-dę,	.
(4AA/	8r	.	.	4r	.	.	.
.	8c/ 8e-X 8f#X	.	.	.	.	.	.
=32	=32	=32	=32	=32	=32	=32	=32
*	*^	*	*	*	*	*	*
8BB-/)	8r	4rFyy	.	.	8g/	i	chy-	.
!	!	!	!	!	!LO:TX:a:i:t=ralent.	!	!	!
8r	8B-/ 8c 8e 8g	.	.	.	8g/	pła-	-ba	.
4CC/ 4C	8.b-/L	8rc	.	.	8.b-/	-kał	na	.
.	.	8B-\ 8c	.	.	.	.	.	.
.	16e/Jk	.	.	.	16e/	i	mo-	.
*	*v	*v	*	*	*	*	*	*
=33	=33	=33	=33	=33	=33	=33	=33
8FF/	8r	.	.	8g/	cze-	-gi-	.
8r	8A/ 8c 8f	.	.	8f/	-kał.	-le.	.
4F\	8ryy	.	>	4r;	.	.	.
.	(>4qqF</	.	.	.	.	.	.
.	4qqc</	.	.	.	.	.	.
.	4qqf\	.	.	.	.	.	.
.	4qqg\	.	.	.	.	.	.
.	4qqa\	.	.	.	.	.	.
.	4qqcc\	.	.	.	.	.	.
.	4qqff\	.	.	.	.	.	.
.	4qqgg\	.	.	.	.	.	.
.	8aa;\)	.	]]	.	.	.	.
!!LO:LB:g=original
=34	=34	=34	=34	=34	=34	=34	=34
!	!	!	!LO:DY:t= piu f.	!LO:TX:a:i:t=piu animato.	!	!	!
8CC/ 8C	8r	.	f	8e/	Gdyś	Za-	.
8r	8G</ 8A< 8c#X 8e	.	.	16e/LL	się	-kwi-	.
.	.	.	.	16f/JJ	.	.	.
8AA\	8r	.	.	8.e/	u-	-tnę-	.
8r	8F</ 8A< 8d	.	.	.	.	.	.
.	.	.	.	16d/	-ro-	-ła	.
=35	=35	=35	=35	=35	=35	=35	=35
*	*^	*	*	*^	*	*	*
8CC/ 8C	8r	8rFyy	.	.	8d/	4ryy	-dzi-	wi-	.
8rBB	(16c#X/LL	4E</ 4A<	.	.	8c#X/	.	-ła	-sna	.
.	16e/J	.	.	.	.	.	.	.	.
8AA\	8a'/J)	.	.	.	8rD	4re	.	.	.
8r	8E</ 8A< 8c#	8ryy	.	.	8c#\	.	.	a-	.
*	*v	*v	*	*	*	*	*	*	*
*	*	*	*	*v	*v	*	*	*
=36	=36	=36	=36	=36	=36	=36	=36
8CC/ 8C	8r	.	.	(8.d/	mo-	-nio-	.
8r	8F</ 8A< 8d	.	.	.	.	.	.
.	.	.	.	16f/)	-ja	.	.
8AA\	8r	.	.	8a/	Hal-	-łek,	.
8r	8d:/ 8f: 8a: 8dd:	.	.	8dd\	-ko	a-	.
=37	=37	=37	=37	=37	=37	=37	=37
*	*^	*	*	*	*	*	*
8E\	8r	8r	.	.	4dd\	mi-	-nio-	.
8r	([8g^/L	8d\	.	>	.	.	.	.
8AA/	16g/L]	8r	.	.	8cc#X\	-ła,	-łek	.
.	16b-/	.	.	.	.	.	.	.
8r	16a/	8c#X\ 8e	.	.	8r	.	.	.
.	16g/JJ)	.	.	]	.	.	.	.
=38	=38	=38	=38	=38	=38	=38	=38	=38
!	!	!	!	!LO:DY:t=p.	!	!	!	!
8D'\L	8f/	8rAyy	.	p	8dd\	po-	z_ró-	.
8A'\J	(<16dd/LL	8f\	.	.	16dd\LL	-nad	-ża-	.
.	16cc#X/JJ	.	.	.	16cc#X\JJ	.	.	.
8D'\L	8dd/L)	8re	.	.	8.dd\	two-	-mi	.
8d'\J	8f'/J 8a	8rFyy	.	.	.	.	.	.
.	.	.	.	.	16a/	-ją	na	.
=39	=39	=39	=39	=39	=39	=39	=39	=39
8G'\L	8r	8rAyy	.	.	8cc\	gło-	li-	.
8B-'\J	8g/	(>16d\LL	.	.	8b-\	-wką	-cu,	.
.	.	16c#X\JJ	.	.	.	.	.	.
8E'\L	8r	8d\L)	.	.	4r	.	.	.
8G'\J	8d/ 8g 8b-	8B-\J	.	.	.	.	.	.
!!LO:LB:g=original
=40	=40	=40	=40	=40	=40	=40	=40	=40
!LO:TX:t=P:problem=mixed beam	!	!	!	!	!	!	!	!
8AA'/L	8ryy	8rA	.	.	8a/	gwiaz-	z_u-	.
8A'\J	(<16a/LL	8c#X\ 8e	.	.	16a/LL	-de-	-ro-	.
.	16g#X/JJ	.	.	.	16g#X/JJ	.	.	.
!LO:TX:t=P:problem=mixed beam	!	!	!	!	!	!	!	!
8AA'/L	8a/)	8re	.	.	8.a/	-czka	-kiem	.
8A'\J	8c#/ 8e	8rFyy	.	.	.	.	.	.
.	.	.	.	.	16e/	świe-	nad	.
*	*v	*v	*	*	*	*	*	*
=41	=41	=41	=41	=41	=41	=41	=41
*^	*	*	*	*	*	*	*
8rA	(4D\	8r	.	.	8g/	-ci-	czo-	.
(16A/LL	.	8A</ 8f	.	.	8f/	-ła.	-łem;	.
16G#X/JJ)	.	.	.	.	.	.	.	.
8A/	4D-X\	8r	.	.	4r	.	.	.
8r	.	8B-</ 8f	.	.	.	.	.	.
=42	=42	=42	=42	=42	=42	=42	=42	=42
8ryy	8C\)	8r	.	.	8g/	świe-	Z_u-	.
!	!	!	!	!	!LO:TX:a:t=accelerando e crescendo.:problem	!	!	!LO:DY:a
(16B-/LL	8r	8B-</ 8e 8g	.	.	16g/LL	-ci-	-ro-	<
16c/JJ	.	.	.	.	16a/JJ	.	.	.
8B-/)	8C\	8r	.	.	8.g/	-ła	-kiem	.
8r	8r	8A</ 8d#X 8f#X	.	.	.	.	.	.
.	.	.	.	.	16f#X/	gwiaz-	nad	.
*v	*v	*	*	*	*	*	*	*
=43	=43	=43	=43	=43	=43	=43	=43
8C\	8r	.	.	8a/	-de-	czo-	.
8r	8B-</ 8e 8g	.	.	8g/	-czka,	-łem,	.
8C\	8r	.	.	4r	.	.	.
8r	8Bn</ 8d 8f 8g#X	.	.	.	.	.	.
=44	=44	=44	=44	=44	=44	=44	=44
*	*^	*	*	*	*	*	*
8C\	8r	8rAyy	.	.	8a/	jej	mia-	.
8r	8c/ 8f 8a	(>16c\LL	.	.	16a/LL	blask	-sto	.
.	.	16d\JJ)	.	.	16b-/JJ	.	.	.
8C\	8r	8c\	.	.	8.a/	w_o-	Kwia-	[
8r	8Bn/ 8f 8g#X	8rFyy	.	.	.	.	.	.
.	.	.	.	.	16g#X/	-ku	-tów	.
*	*v	*v	*	*	*	*	*	*
=45	=45	=45	=45	=45	=45	=45	=45
8C\	8r	.	.	8b-/	bły-	wień-	.
8r	8c/ 8f 8a	.	.	8a/	-snął,	-ca,	.
(<4EE-X/ (>4E-X	8r	.	.	4r	.	.	.
.	8c/ 8f 8a	.	.	.	.	.	.
!!LO:PB:g=original
=46	=46	=46	=46	=46	=46	=46	=46
!LO:TX:t=P:problem=brak zakończenia łuku	!	!	!	!	!	!	!
8DD/) 8D)	8r	.	.	8b-\	na	po-	.
8r	8B-/ 8f 8b-	.	.	16b-\LL	u-	-chwy-	.
.	.	.	.	16cc\JJ	.	.	.
(>4EE-X/ 4E-X	8r	.	.	8b-\	-stecz-	-cił	.
.	8c/ 8f 8a	.	.	8a/	-kach	roz-	.
=47	=47	=47	=47	=47	=47	=47	=47
!	!	!	!	!	!	!	!LO:DY:a
4DD/ 4D	8r	.	.	8cc\	za-	-ma-	<
.	8B-/ 8f 8b-	.	.	4b-\	-pał	-rzył,	.
4DD-X/ 4D-X	8r	.	.	.	.	.	.
.	8Bn/ 8f 8a-X 8bn	.	.	8bn\	po-	roz-	.
=48	=48	=48	=48	=48	=48	=48	=48
4CC/ 4C	8r	.	.	8dd\	-ran-	-pie-	.
.	8c/ 8f 8a 8cc	.	.	4cc\	-ku	-ścił	.
4AAA/) 4AA	8r	.	.	.	.	.	.
.	8c#X/ 8f 8cc#X	.	.	8cc#X\	za-	mło-	[
=49	=49	=49	=49	=49	=49	=49	=49
!	!	!	!LO:DY:b=2:t=f.	!	!	!	!LO:DY:a:t=f.
N(4BBB-;\ 4BB-	4ryy	.	f	[4ee\	-wi-	-dzień-	f
!	!LO:TX:t=P:problem=mixed beam	!	!	!	!	!	!
.	8qqD</L	.	.	.	.	.	.
.	8qqG</	.	.	.	.	.	.
.	8qqB-</	.	.	.	.	.	.
.	8qqc#X\	.	.	.	.	.	.
.	8qqd\	.	.	.	.	.	.
.	8qqg\	.	.	.	.	.	.
.	8qqb-\	.	.	.	.	.	.
.	8qqcc#X\J	.	.	.	.	.	.
4ryy	8.ee;\LN)	.	.	8.ee\L]	.	.	.
.	32dd\Jkk	.	.	32dd\Jkk	-snął.	-ca	.
.	32r;	.	.	32r;	.	.	.
!!LO:LB:g=original
=50	=50	=50	=50	=50	=50	=50	=50
*	*	*below	*	*	*	*	*
!	!	!	!	!LO:TX:a:i:t=lento.	!	!	!LO:DY:a:t=f.
2CC/ 2C	(16B-/LL	2	f	8.dd\	Bo	a	f
.	16c/	1	.	.	.	.	.
.	16e/ 16g 16cc	.	.	.	.	.	.
.	16c/JJ	.	.	16cc\	Bóg	tam	.
.	16B-/LL	2	.	8b-\	so-	bły-	.
.	16c/	3	.	.	.	.	.
.	16B-/ 16e 16g	.	.	8g/	-bie	-szczy	.
.	16G/JJ)	.	.	.	.	.	.
=51	=51	=51	=51	=51	=51	=51	=51
2C^/	(16A/LL	2	.	8f/	przy-	gwiaz-	.
.	16c/	1	.	.	.	.	.
.	16f/ 16a 16cc	.	.	(4a/	-śnił	.	.
.	16c/JJ	.	.	.	.	.	.
.	16A/LL	2	.	.	.	.	.
.	16c/	3	.	.	.	.	.
.	16A/ 16f	.	.	8cc\)	a-	-da	.
.	16F/JJ)	.	.	.	.	.	.
=52	=52	=52	=52	=52	=52	=52	=52
*	*	*	*	*^	*	*	*
!	!	!	!	!	!	!	!	!LO:DY:a
2CC/ [2C	(16G/LL	2	.	8.dd/	8.dd\L	-nioł-	po-	>
.	16c/	1	.	.	.	.	.	.
.	16e/ 16cc	.	.	.	.	.	.	.
.	16b-/JJ	.	.	16cc/	16cc\Jk	.	-nad	]
.	16g/LL	.	.	8.b-\	4rFyy	-ka	je-	.
.	16e/	.	.	.	.	.	.	.
.	16c/	.	.	.	.	.	.	.
.	16B-/JJ)	.	.	16g/	.	na	-go	.
*	*	*	*	*v	*v	*	*	*
=53	=53	=53	=53	=53	=53	=53	=53
!	!LO:TX:a:i:t=ralent.	!	!	!	!	!	!
4FF/ 4C]	(16A/LL	1	.	8b-/	nie-	skro-	.
.	16c/	.	>	.	.	.	.
.	16f/	.	.	4a/	-bie,	-niem	.
.	16g/JJ	.	p	.	.	.	.
4r	8a/L	1	.	.	.	.	.
!	!	!	!	!	!	!	!LO:DY:b
.	16aa/Jk)	.	]	8r	.	.	p
.	16r	.	.	.	.	.	.
=54	=54	=54	=54	=54	=54	=54	=54
!LO:TX:t=P:problem=mixed beam	!	!	!	!LO:TX:a:i:t=a tempo 1mo	!	!	!
8AA/L	8g'/	.	.	8e/	u-	i	.
!	!LO:TX:b:i:t=accompagniato\nil canto.	!	!	!	!	!	!
8E\J 8A 8c#X	16g/LL	.	.	16e/LL	-lał	mło-	.
.	16a/JJ	.	.	16f/JJ	.	.	.
!LO:TX:t=P:problem=mixed beam	!	!	!	!	!	!	!
8AA/L	8.g/L	.	.	8.e/	ser-	-dzień-	.
8F\J 8A 8d	.	.	.	.	.	.	.
.	16f/Jk	.	.	16d/	-ce	-ca	.
!!LO:LB:g=original
=55	=55	=55	=55	=55	=55	=55	=55
.	(16qqf/LL	.	.	.	.	.	.
!LO:TX:t=P:problem=mixed beam	!	!	!	!	!	!	!
.	16qqg/JJ	.	.	.	.	.	.
8AA/L	8f/)	.	.	8d/	z_łez-	my-	.
8A\J	4G<^^/ 4e	.	.	8c#X/	-ki	-śli	.
!LO:TX:t=P:problem=mixed beam	!	!	!	!	!	!	!
8AA/L	.	.	.	4r	.	.	.
8E\J 8A	8A:/ 8c#X: 8e: 8a:	.	.	.	.	.	.
=56	=56	=56	=56	=56	=56	=56	=56
!LO:TX:t=P:problem=mixed beam	!	!	!	!	!	!	!LO:DY:a
8AA/L	8.f^/L	.	.	8.d/	że-	jej	<
8F\J 8A 8d	.	.	.	.	.	.	.
.	16a^/K	.	.	16f/	-by	pro-	.
!LO:TX:t=P:problem=mixed beam	!	!	!	!	!	!	!
8AA/L	8dd^/	.	.	8a/	stwo-	-my-	.
8F\J 8A 8d	8ff^/J	.	.	8dd\	-rzyć	-ki	[
=57	=57	=57	=57	=57	=57	=57	=57
.	(16qqff/LL	.	.	.	.	.	.
!LO:TX:t=P:problem=mixed beam	!	!	!	!	!	!	!
.	16qqgg/JJ	.	.	.	.	.	.
!	!	!	!	!	!	!	!LO:DY:a
8AA/L	8ff'\)	.	.	8dd\	cie-	go-	>
8E\J 8A 8c#X	4ee^^\	.	.	8cc#X\	-bie;	-nią.	]
!LO:TX:t=P:problem=mixed beam	!	!	!	!	!	!	!
8AA/L	.	.	.	4r	.	.	.
8A\J 8c#	8e:\ 8a: 8ee':	.	.	.	.	.	.
=58	=58	=58	=58	=58	=58	=58	=58
!LO:TX:t=P:problem=mixed beam	!	!	!	!	!	!	!
8DD/L|	8ff'\	.	.	8dd\	że-	Jej	.
8F\J 8A 8d|	16ff\LL	.	.	16dd\LL	by	pro-	.
.	16ee\JJ	.	.	16cc#X\JJ	.	.	.
!	!LO:TX:t=P:problem=mixed beam	!	!	!	!	!	!
8D\L^<	8ff\L	.	.	8.dd\	stwo-	-my-	.
8A\J 8d	8f/J	.	.	.	.	.	.
.	.	.	.	16a/	-rzyć	-ki	.
=59	=59	=59	=59	=59	=59	=59	=59
!LO:TX:t=P:problem=mixed beam	!	!	!	!	!	!	!
8GG/L|	8a'/	.	.	8cc\	cie-	go-	.
8B-\J 8d|	[8g/	.	.	8b-\	-bie,	-nią,	.
8E\L^<	16g/LL]	.	.	4r	.	.	.
.	16f/	.	.	.	.	.	.
8G\J 8B-	16e/	.	.	.	.	.	.
.	16d/JJ	.	.	.	.	.	.
=60	=60	=60	=60	=60	=60	=60	=60
!LO:TX:t=P:problem=mixed beam	!LO:TX:a:i:t=legier	!	!	!	!	!	!
8AA/L|	(16c#X/LL	.	.	8a/	po-	że-	.
.	16e/	.	.	.	.	.	.
8G\J 8c#X|	16a/	.	.	16a/LL	-świa-	-by	.
.	16cc#X/JJ)	.	.	16b-/JJ	.	.	.
!LO:TX:t=P:problem=mixed beam	!	!	!	!	!	!	!
8EE/L	8ee/|	.	.	8.a/	-ta	w_nie-	.
8B-X\J|	8e/ 8g 8dd|	.	.	.	.	.	.
.	.	.	.	16g/	prze-	-bo	.
=61	=61	=61	=61	=61	=61	=61	=61
*	*^	*	*	*	*	*	*
*	*	*	*	*^	*	*	*	*
!LO:TX:a:i:t=molto ralent&colon;	!	!	!	!	!	!LO:TX:a:i:t=ralent.	!	!	!
!	!	!	!	!LO:HP:b=2	!	!	!	!	!
!	!	!	!	!LO:DY:b=2	!	!	!	!	!
(4AAA/ 4AA	8r	8rFyy	.	sf >	.	8b-/	-stwo-	le-	.
.	(8cc#X/L	4e\ 4g	.	.	>	16a/	-rza,	-cić,	.
.	.	.	.	.	.	16r	.	.	.
8BB-/L	8ee/	.	.	.	.	4r	.	.	.
8BBn/J)	8dd/J)	8f\ 8a-X	.	]]	]]	.	.	.	.
*	*	*	*	*v	*v	*	*	*	*
*	*v	*v	*	*	*	*	*	*
!!LO:LB:g=original
=62	=62	=62	=62	=62	=62	=62	=62
!	!	!	!	!LO:TX:a:i:t=molto tranquillo.	!	!	!LO:DY:b:t=p.
8C\	8r	.	] p	8g/	zbie-	że-	p
8r	8B-/ 8e 8g	.	.	8g/	-rał	-by	.
8C\	8r	.	.	8.b-/	gwiazd-	dla	.
8r	8B-/ 8e 8g	.	.	.	.	.	.
.	.	.	.	16e/	-ki,	a-	.
=63	=63	=63	=63	=63	=63	=63	=63
*	*^	*	*	*	*	*	*
*	*	*	*^	*	*	*	*	*
8CC/	8r	8c\L	.	.	.	8f/	tę-	-nio-	.
8r	8A/ 8f 8a	8c\J	.	.	.	4.a/	-cze	-ła	.
*	*	*	*	*above	*	*	*	*	*
(4C/	8r	8.f^\L	.	4	.	.	.	.	.
.	8c/ 8a	.	.	.	.	.	.	.	.
.	.	16A\Jk	.	.	.	.	.	.	.
*	*	*	*v	*v	*	*	*	*	*
=64	=64	=64	=64	=64	=64	=64	=64	=64
.	.	(16qqc/LL	.	.	.	.	.	.
.	.	16qqd/JJ	.	.	.	.	.	.
8CC/)	8r	8c\L)	.	.	8g/	o-	wień-	.
8r	8e/ 8g	8B-\J	.	.	8g/	-bło-	-cem	.
4r;	8ryy	8.d^;>\L	.	.	8.b-;/	-czki	gwiaz	.
.	8e/ 8g	.	.	.	.	.	.	.
.	.	16G\Jk	.	.	16e/	i	za-	.
*	*v	*v	*	*	*	*	*	*
=65	=65	=65	=65	=65	=65	=65	=65
!	!	!	!LO:DY:b=2:t=ppp.	!	!	!	!
N(>4FF\	4ryy	.	ppp	8g/	zo-	-świe-	.
.	.	.	.	8f/	-rze.	-cić!	.
!LO:TX:t=P:problem=mixed beam	!	!	!	!	!	!	!
8qqC/L	.	.	.	.	.	.	.
8qqF/	.	.	.	.	.	.	.
8qqF/	.	.	.	.	.	.	.
8qqc/	.	.	.	.	.	.	.
8qqf>\	.	.	.	.	.	.	.
8qqg>\J	.	.	.	.	.	.	.
4ryy	4a/N)	.	.	4r;	.	.	.
=-	=-	=-	=-	=-	=-	=-	=-
!LO:TX:a:i:t=rallendtando.	!	!	!	!	!	!	!
N(>4F\	4ryy	.	.	2ryy	.	.	.
!	!LO:TX:t=P:problem=mixed beam	!	!	!	!	!	!
.	8qqc</L	.	.	.	.	.	.
.	8qqf\	.	.	.	.	.	.
.	8qqg\	.	.	.	.	.	.
.	8qqa\	.	.	.	.	.	.
.	8qqcc\	.	.	.	.	.	.
.	8qqff\	.	.	.	.	.	.
.	8qqgg\J	.	.	.	.	.	.
4ryy	4aa\N)	.	.	.	.	.	.
=-	=-	=-	=-	=-	=-	=-	=-
4f>;\	4ryy	.	.	2ryy	.	.	.
.	(8qqcc/L	.	.	.	.	.	.
.	8qqff/	.	.	.	.	.	.
.	8qqgg/	.	.	.	.	.	.
.	8qqaa/	.	.	.	.	.	.
.	8qqccc/	.	.	.	.	.	.
.	8qqfff/	.	.	.	.	.	.
.	8qqggg/J	.	.	.	.	.	.
4ryy	4aaa\)	.	.	.	.	.	.
!!LO:PB:g=original
=66:|!	=66:|!	=66:|!	=66:|!	=66:|!	=66:|!	=66:|!	=66:|!
*^	*	*	*	*	*	*	*
!	!	!	!	!	!LO:TX:a:i:t=un poco piu lento.	!	!	!
.	8qDD/	.	.	.	.	.	.	.
!	!	!	!	!LO:DY:t=p.	!	!	!	!
8r	2D\	(16aa\LL	.	p	8a/	A-	.	.
.	.	16fff\JJ)	.	.	.	.	.	.
*tremolo	*	*	*	*	*	*	*	*
8F/ 8A 8dL	.	(16fff\LL	.	.	8a/	-le	.	.
.	.	16eee\JJ)	.	.	.	.	.	.
8F/ 8A 8d	.	(16eee\LL	.	.	8.a/	tu	.	.
.	.	16ddd\JJ)	.	.	.	.	.	.
8F/ 8A 8dJ	.	(16ddd\LL	.	.	.	.	.	.
*Xtremolo	*	*	*	*	*	*	*	*
.	.	16ccc\JJ)	.	.	16a/	na	.	.
=67	=67	=67	=67	=67	=67	=67	=67	=67
8r	2G\	(16ccc\LL	.	.	8cc/	zie-	.	.
.	.	16bb-\JJ)	.	.	.	.	.	.
*tremolo	*	*	*	*	*	*	*	*
8B-/ 8dL	.	(8.ddd^\L	.	.	4b-/	-mi	.	.
8B-/ 8d	.	.	.	.	.	.	.	.
.	.	16bb-\L	.	.	.	.	.	.
8B-/ 8dJ	.	16gg\	.	.	8r	.	.	.
*Xtremolo	*	*	*	*	*	*	*	*
.	.	16ff\JJ)	.	.	.	.	.	.
=68	=68	=68	=68	=68	=68	=68	=68	=68
8r	2C\	(16ee\LL	.	.	8g/	cho-	.	.
.	.	16eee\JJ)	.	.	.	.	.	.
*tremolo	*	*	*	*	*	*	*	*
8G/ 8B- 8eL	.	(16eee\LL	.	.	8g/	-ciaż	.	.
.	.	16ddd\JJ)	.	.	.	.	.	.
8G/ 8B- 8e	.	(16ddd\LL	.	.	8.cc\	czło-	.	.
.	.	16ccc\JJ)	.	.	.	.	.	.
8G/ 8B- 8eJ	.	(16ccc\LL	.	.	.	.	.	.
*Xtremolo	*	*	*	*	*	*	*	*
.	.	16bb-\JJ)	.	.	16b-\	-wiek	.	.
=69	=69	=69	=69	=69	=69	=69	=69	=69
8r	2F\	(16bb-\LL	.	.	8b-\	ska-	.	.
.	.	16aa\JJ)	.	.	.	.	.	.
*tremolo	*	*	*	*	*	*	*	*
8A/ 8c 8eL	.	(8.ccc^\L	.	.	8a\	-cze,	.	.
8A/ 8c 8e	.	.	.	.	4r	.	.	.
.	.	16aa\L	.	.	.	.	.	.
8A/ 8c 8eJ	.	16ff\	.	.	.	.	.	.
*Xtremolo	*	*	*	*	*	*	*	*
.	.	16ee\JJ)	.	.	.	.	.	.
=70	=70	=70	=70	=70	=70	=70	=70	=70
8r	2BB-\	(16dd\LL	.	.	8.dd\	prze-	.	.
.	.	16ddd\JJ)	.	.	.	.	.	.
*tremolo	*	*	*	*	*	*	*	*
8A/ 8dL	.	(16ddd\LL	.	.	.	.	.	.
.	.	16ccc\JJ)	.	.	16dd\	-cież	.	.
8A/ 8d	.	(16ccc\LL	.	.	8.dd\	a-	.	.
.	.	16bb-\JJ)	.	.	.	.	.	.
8A/ 8dJ	.	(16bb-\LL	.	.	.	.	.	.
*Xtremolo	*	*	*	*	*	*	*	*
.	.	16aa\JJ)	.	.	16dd\	-nioł	.	.
=71	=71	=71	=71	=71	=71	=71	=71	=71
8r	2E\	(16aa\LL	.	.	4.dd\	czę-	.	.
.	.	16gg\JJ)	.	.	.	.	.	.
*tremolo	*	*	*	*	*	*	*	*
8G/ 8B- 8dL	.	(8.bb-^\L	.	.	.	.	.	.
8G/ 8B- 8d	.	.	.	.	.	.	.	.
.	.	16gg\L	.	.	.	.	.	.
8G/ 8B- 8dJ	.	16ee\	.	.	16cc/LL	-sto	.	.
*Xtremolo	*	*	*	*	*	*	*	*
.	.	16dd\JJ)	.	.	16b-/JJ	.	.	.
*v	*v	*	*	*	*	*	*	*
!!LO:LB:g=original
=72	=72	=72	=72	=72	=72	=72	=72
!LO:TX:t=P:problem=mixed beam	!	!	!	!	!	!	!
8A/L	(16cc#X/LL	.	.	8.a/	we-	.	.
.	16ee/	.	.	.	.	.	.
8c#X>\J 8e> 8a>	16aa/	.	.	.	.	.	.
.	16ccc#X/JJ)	.	.	16bn/	-stchnie	.	.
!LO:TX:t=P:problem=mixed beam	!	!	!	!	!	!	!
8E/L	8eee/|	.	.	8g#X/	i	.	.
8Bn>\J 8e> 8g#X>	16r	.	.	8e/	za-	.	.
.	32ddd\LLL	.	.	.	.	.	.
.	32eee\JJJ	.	.	.	.	.	.
=73	=73	=73	=73	=73	=73	=73	=73
!LO:TX:t=P:problem=mixed beam	!	!	!	!	!	!	!
8AA/L	8ddd'\	.	.	8a/	-pła-	.	.
(>8c#X>\ 8e> 8a>	[>8ccc#X^</	.	<	4a/	cze,	.	.
8c#>\ 8e> 8g#X>	16ccc#/LL]	.	.	.	.	.	.
.	16aa/JJ	.	.	.	.	.	.
.	8qcccn/	.	.	.	.	.	.
8c#>\J) 8e> 8gn>	16bb-/LL	.	[[	8r	.	.	.
.	16aa/JJ	.	.	.	.	.	.
=74	=74	=74	=74	=74	=74	=74	=74
*	*8va	*	*	*	*	*	*
*^	*	*	*	*	*	*	*
!	!	!LO:TX:t=P:problem=mixed beam	!	!	!	!	!	!
!	!	!LO:TX:b:i:t=loco	!	!	!	!	!	!
8r	2F\	(16aa/LL	.	.	8.a/	we-	.	.
.	.	16aaa\JJ)	.	.	.	.	.	.
*tremolo	*	*	*	*	*	*	*	*
8A>\ 8c> 8f>L	.	(16aaa\LL	.	.	.	.	.	.
.	.	16ggg\JJ)	.	.	16a/	-stchnie	.	.
8A>\ 8c> 8f>	.	(16ggg\LL	.	>	8a/	i	.	.
.	.	16fff\JJ)	.	.	.	.	.	.
8A>\ 8c> 8f>J	.	(16fff\LL	.	.	8a/	za-	.	.
*Xtremolo	*	*	*	*	*	*	*	*
.	.	16eee\JJ)	.	]]	.	.	.	.
=75	=75	=75	=75	=75	=75	=75	=75	=75
8r	2B-\	16eee\LL	.	.	[4dd\	-pła-	.	.
.	.	16ddd\JJ	.	.	.	.	.	.
*tremolo	*	*	*	*	*	*	*	*
8d>\ 8g>L	.	[8ggg^\L	.	.	.	.	.	.
8d>\ 8g>	.	16ggg\L]	.	.	16dd\LL]	.	.	.
.	.	16fff\	.	.	16cc\JJ	.	.	.
8d>\ 8g>J	.	16eee\	.	.	16cc\LL	-cze,	.	.
*Xtremolo	*	*	*	*	*	*	*	*
.	.	16ddd\JJ	.	.	16b-\JJ	.	.	.
=76	=76	=76	=76	=76	=76	=76	=76	=76
8r	2E\	16ccc/LL	.	.	16a/LL	i	.	.
.	.	16ggg/	.	.	16g/JJ	.	.	.
*tremolo	*	*	*	*	*	*	*	*
8c>\ 8g>L	.	(<16ggg/	.	.	8g/	tu	.	.
.	.	16fff/JJ)	.	.	.	.	.	.
8c>\ 8g>	.	(<16fff/LL	.	.	8.cc\	cier-	.	.
.	.	16eee/)	.	.	.	.	.	.
8c>\ 8g>J	.	(<16eee/	.	.	.	.	.	.
*Xtremolo	*	*	*	*	*	*	*	*
.	.	16ddd/JJ)	.	.	16b-\	-nie	.	.
!!LO:LB:g=original
=77	=77	=77	=77	=77	=77	=77	=77	=77
8r	2A\	16ddd/LL	.	.	4b-/	ziel-	.	.
.	.	16ccc/JJ	.	.	.	.	.	.
*tremolo	*	*	*	*	*	*	*	*
8c>\ 8f>L	.	(<8.fff^</L	.	.	.	.	.	.
8c>\ 8f>	.	.	.	.	8a/	-ska	.	.
.	.	16eee/L	.	.	.	.	.	.
8c>\ 8f>J	.	16ddd/	.	.	8r	.	.	.
*Xtremolo	*	*	*	*	*	*	*	*
.	.	16ccc/JJ)	.	.	.	.	.	.
=78	=78	=78	=78	=78	=78	=78	=78	=78
!	!	!	!	!	!	!	!	!LO:DY:a
8r	2D\	(16bb-/LL	.	.	8.dd\	już	.	<
.	.	16fff/JJ)	.	.	.	.	.	.
*tremolo	*	*	*	*	*	*	*	*
8B->\ 8f>L	.	(<16fff/LL	.	.	.	.	.	.
.	.	16eee/JJ)	.	.	16dd\	o-	.	.
8B->\ 8f>	.	(<16eee/LL	.	<	8dd\	-bla-	.	.
.	.	16ddd/JJ)	.	.	.	.	.	.
8B->\ 8f>J	.	(<16ddd/LL	.	.	8dd\	-ła	.	[[
*Xtremolo	*	*	*	*	*	*	*	*
.	.	16ccc/JJ)	.	[[	.	.	.	.
=79	=79	=79	=79	=79	=79	=79	=79	=79
8r	2G\	(<16ccc/LL	.	f	[4ee^^\	nie-	.	.
.	.	16bb-/JJ)	.	.	.	.	.	.
*tremolo	*	*X8va	*	*	*	*	*	*
8B->\ 8e>L	.	(8.bb-^\L	.	>	.	.	.	>
8B->\ 8e>	.	.	.	.	16ee\LL]	.	.	.
.	.	16gg\L	.	.	16dd\JJ	.	.	.
8B->\ 8e>J	.	16ee\	.	.	16cc\LL	-raz	.	]
.	.	16cc\JJ)	.	]]	16b-\JJ	.	.	.
*Xtremolo	*	*	*	*	*	*	*	*
=80	=80	=80	=80	=80	=80	=80	=80	=80
*	*	*^	*	*	*	*	*	*
!	!	!	!	!	!	!	!	!	!LO:DY:a
4e>\ 4g>	[<2A\	(<16cc#X/LL	4cc#\	.	<	8.b-\	two-	.	>
.	.	16bb-/JJ)	.	.	.	.	.	.	.
.	.	(<16bb-/LL	.	.	.	.	.	.	.
.	.	16aa/JJ)	.	.	.	16a\	-ja	.	]
!	!	!	!	!	!	!	!	!	!LO:DY:a
8e#X>\L 8g#X>	.	(<16dd/LL	8dd\L	.	.	8.b-\	łza	.	>
.	.	16bb-/JJ)	.	.	.	.	.	.	.
8f>\J 8a>	.	(<16bb-/LL	8dd#X\J	.	.	.	.	.	.
.	.	16aa/JJ)	.	.	[	16a\	a-	.	]
*v	*v	*	*	*	*	*	*	*	*
=81	=81	=81	=81	=81	=81	=81	=81	=81
!	!	!	!	!LO:DY:b=2	!LO:TX:a:i:t=ralent.	!	!	!
8A\] 8g> 8a>	(<16aa/LL	8ee\	.	sf	4.a/	-niel-	.	.
.	16gg#X/	.	.	>	.	.	.	.
!	!LO:TX:b:i:t=ralent.	!	!	!	!	!	!	!
8r	16ggn/	8rAyy	.	.	.	.	.	.
.	16ee/JJ	.	.	.	.	.	.	.
4r	16cc#X/LL	4rAyy	.	.	.	.	.	.
.	16b-X/	.	.	.	.	.	.	.
.	16.a/	.	.	.	8g/	-ska!	.	.
.	32g/JJk)	.	.	]	.	.	.	.
*	*v	*v	*	*	*	*	*	*
!!LO:LB:g=original
=82	=82	=82	=82	=82	=82	=82	=82
!	!	!	!	!LO:TX:a:i:t=a tempo.	!	!	!
(<4AA/	(16e-X/LL 16g	.	.	8g/	tu-	.	.
.	16c/	.	.	.	.	.	.
.	16e-/ 16f	.	.	8f/	-taj	.	.
.	16c/JJ	.	.	.	.	.	.
4FF/	16e-/LL 16g	.	.	8cc\	by	.	.
.	16c/	.	.	.	.	.	.
.	16e-/ 16f	.	.	8ee-X\	po-	.	.
.	16c/JJ	.	.	.	.	.	.
=83	=83	=83	=83	=83	=83	=83	=83
*	*^	*	*	*	*	*	*
4BB-/	8g/L	16d\LL	.	.	4.dd\	-trze-	.	.
.	.	16B-\	.	.	.	.	.	.
.	8f/	16d\	.	.	.	.	.	.
.	.	16B-\JJ	.	.	.	.	.	.
4FF/	8b-/	16d\LL	.	.	.	.	.	.
.	.	16B-\	.	.	.	.	.	.
.	8f/J	16d\	.	.	8b-\	-ba,	.	.
.	.	16B-\JJ	.	.	.	.	.	.
*	*v	*v	*	*	*	*	*	*
=84	=84	=84	=84	=84	=84	=84	=84
!	!LO:TX:t=P:problem=mixed beam	!	!	!	!	!	!
4C\	16e-X\LL 16g	.	.	8b-/	o	.	.
.	16F</	.	.	.	.	.	.
.	16e-\ 16f	.	.	8a/	a-	.	.
.	16F</JJ	.	.	.	.	.	.
!	!LO:TX:t=P:problem=mixed beam	!	!	!	!	!	!
4FF/	16e-\LL 16g	.	.	8g/	-nie-	.	.
.	16F</	.	.	.	.	.	.
.	16e-\ 16f	.	.	8a/	-le	.	.
.	16F</JJ	.	.	.	.	.	.
=85	=85	=85	=85	=85	=85	=85	=85
*	*^	*	*	*	*	*	*
.	.	.	.	.	(<16qqa/L	.	.	.
.	.	.	.	.	16qqgJ	.	.	.
4BB-\	16f/LL	8e-X\L	.	.	4.f/)	biéd-	.	.
.	16F/	.	.	.	.	.	.	.
.	16f/	8d\	.	.	.	.	.	.
.	16F/JJ	.	.	.	.	.	.	.
4FF/)	16g/LL	8c\	.	.	.	.	.	.
.	16F/	.	.	.	.	.	.	.
.	16f/	8B-\J	.	.	8f/	-ny,	.	.
.	16F/JJ)	.	.	.	.	.	.	.
=86	=86	=86	=86	=86	=86	=86	=86	=86
(4C\	(>16e-X/LL 16f	8B-\L	.	.	8g/	wy-	.	.
.	16F</	.	.	.	.	.	.	.
.	16e-/ 16f	8A\	.	.	8f/	-rzec	.	.
.	16F</JJ	.	.	.	.	.	.	.
4FF/)	16e-/LL 16f	8G\	.	.	8cc\	się	.	.
.	16F</	.	.	.	.	.	.	.
!	!	!	!	!	!LO:SIC:s:v=ee-	!	!	!
.	16e-/ 16f	8A\J	.	.	8ee\	a-	.	.
.	16F</JJ	.	.	.	.	.	.	.
*	*v	*v	*	*	*	*	*	*
=87	=87	=87	=87	=87	=87	=87	=87
!	!	!	!	!	!	!	!LO:DY:a
(8BB-/L	16d/LL 16f	.	<	4.dd\	-niel-	.	<
.	16B-/	.	.	.	.	.	.
8AA/	16c/ 16f#X	.	.	.	.	.	.
.	16d/JJ	.	.	.	.	.	.
8GG/	16B-/LL 16g	.	.	.	.	.	.
.	16d/	.	.	.	.	.	.
8FF#X/J	16A/ 16a	.	.	8dd\	-stwa	.	[[
.	16d/JJ	.	[[	.	.	.	.
!!LO:PB:g=original
=88	=88	=88	=88	=88	=88	=88	=88
!LO:TX:t=P:problem=brak zakończenia łuku	!LO:TX:t=P:problem=brak zakończenia łuku	!	!	!	!	!	!
4GG/)	16r)	.	.	8.dd\	dla	.	.
.	16d/LL	.	.	.	.	.	.
.	16B-/ 16g	.	.	.	.	.	.
.	16d/JJ	.	.	16cc\	tej	.	.
4C/	16r	.	.	8b-\	łe-	.	.
*	*	*below	*	*	*	*	*
.	16c/LL	1	.	.	.	.	.
.	16B-/ 16e 16g	2	.	8g/	-zki	.	.
.	16c/JJ	.	.	.	.	.	.
=89	=89	=89	=89	=89	=89	=89	=89
*	*^	*	*	*	*	*	*
2FF/	16r	8rcyy	.	.	4.f/	jed-	.	.
.	16c/LL	.	.	.	.	.	.	.
.	16A/ 16f	8A\L	.	.	.	.	.	.
.	16c/JJ	.	.	.	.	.	.	.
.	16d-X/LL	8B-\	.	.	.	.	.	.
.	16f/	.	.	.	.	.	.	.
.	16dn/	8Bn\J	.	.	8f/	-nej,	.	.
.	16f/JJ	.	.	.	.	.	.	.
=90	=90	=90	=90	=90	=90	=90	=90	=90
*^	*	*	*	*	*	*	*	*
(2A/	4r	8g-X/L	16e-X\LL	.	.	8g-X/	a-	.	.
.	.	.	16c\	.	.	.	.	.	.
.	.	8g-/	16e-\	.	.	8f/	-le	.	.
.	.	.	16c\JJ	.	.	.	.	.	.
.	4FF\	8g-/	16e-\LL	.	.	8cc\	Kto	.	.
.	.	.	16c\	.	.	.	.	.	.
.	.	8f/J	16e-\	.	.	8ee-X\	już	.	.
.	.	.	16c\JJ	.	.	.	.	.	.
=91	=91	=91	=91	=91	=91	=91	=91	=91	=91
4r)	2BB-\	8g-X/L	16d-X\LL	.	.	4.dd-X\	łez-	.	.
.	.	.	16B-\	.	.	.	.	.	.
.	.	8f/	16d-\	.	.	.	.	.	.
.	.	.	16B-\JJ	.	.	.	.	.	.
[4F^</	.	8b-/	16d-\LL	.	.	.	.	.	.
.	.	.	16B-\	.	.	.	.	.	.
.	.	8f/J	16d-\	.	.	8dd-\	-ki	.	.
.	.	.	16B-\JJ	.	.	.	.	.	.
*	*	*v	*v	*	*	*	*	*	*
=92	=92	=92	=92	=92	=92	=92	=92	=92
2F/]	2C\	16e-X/LL 16g-X	.	.	8dd-X\	ża-	.	.
.	.	16B-/	.	.	.	.	.	.
.	.	16e-/ 16f	.	.	8cc\	-dnej	.	.
.	.	16A/JJ	.	.	.	.	.	.
.	.	16e-/LL 16g-	.	.	8.dd-\	nie	.	.
.	.	16B-/	.	.	.	.	.	.
.	.	16e-/ 16f	.	.	.	.	.	.
.	.	16c/JJ	.	.	16an/	po-	.	.
*v	*v	*	*	*	*	*	*	*
!!LO:LB:g=original
=93	=93	=93	=93	=93	=93	=93	=93
*ped	*Xtuplet	*	*	*	*	*	*
!	!	!	!LO:DY:t=pp.	!	!	!	!
4D-X\	20B-/LL 20f	.	pp	4cc\	-sia-	.	.
.	(<20F</	.	.	.	.	.	.
.	20B-/	.	.	.	.	.	.
.	20d-X/	.	.	.	.	.	.
.	20en/	.	.	.	.	.	.
4r	20f/	.	.	8b-\	-da	.	.
.	20b-/	.	.	.	.	.	.
.	20dd-X/	.	.	.	.	.	.
.	.	.	.	8r	.	.	.
.	20een/	.	.	.	.	.	.
.	20ff/JJ)	.	.	.	.	.	.
=94	=94	=94	=94	=94	=94	=94	=94
*Xped	*	*	*	*	*	*	*
!	!	!	!	!LO:TX:a:i:t=ad libit	!	!	!
2r	8bb-/	.	.	4r	.	.	.
.	8r	.	.	.	.	.	.
.	4r	.	.	8.b-/	ni	.	.
!	!	!	!LO:DY:t=pp.	!	!	!	!
.	.	.	pp	16a-X/	to	.	.
=95	=95	=95	=95	=95	=95	=95	=95
*ped	*	*	*	*	*	*	*
[>2BB-\ [>2D-X	16r	.	.	4.a-X/	a-	.	.
!	!LO:TX:t=P:problem=mixed beam	!	!	!	!	!	!
.	(16G-X</LL	.	.	.	.	.	.
.	16B-</	.	.	.	.	.	.
.	16d-X\	.	.	.	.	.	.
.	16f\	.	.	.	.	.	.
.	16g-X\	.	.	.	.	.	.
.	16b-\	.	.	8g-X/	-nioł…	.	.
.	16dd-X\JJ	.	.	.	.	.	.
=96	=96	=96	=96	=96	=96	=96	=96
8BB-\] 8D-]	8gg-X\)	.	.	4r	.	.	.
*Xped	*	*	*	*	*	*	*
.	.	.	.	.	.	.	.
8r	8r	.	.	.	.	.	.
4r	4r	.	.	8.g-X;/	ni	.	.
.	.	.	.	16f/	to	.	.
!!LO:LB:g=original
=97	=97	=97	=97	=97	=97	=97	=97
[>2BBn\ [>2D	20r	.	.	2f/	czło-	.	.
!	!LO:TX:t=P:problem=mixed beam	!	!	!	!	!	!
.	(20F</LL	.	.	.	.	.	.
.	20A-X</	.	.	.	.	.	.
.	20c#X\	.	.	.	.	.	.
.	20d\	.	.	.	.	.	.
.	20f\	.	.	.	.	.	.
.	20a-X\	.	.	.	.	.	.
.	20cc#X\	.	.	.	.	.	.
.	20dd\	.	.	.	.	.	.
.	20ff\JJ	.	.	.	.	.	.
=98	=98	=98	=98	=98	=98	=98	=98
8BB\] 8D]	8aa-X\)	.	.	8e/	-wiek,	.	.
8r	8r	.	.	8r	.	.	.
4r	4r	.	.	8r	.	.	.
.	.	.	.	8f/	o	.	.
=99	=99	=99	=99	=99	=99	=99	=99
!	!	!	!	!	!	!	!LO:DY:a
2r	2r	.	.	4a-X/	bia-	.	>
.	.	.	.	8.e/	-da	.	]
.	.	.	.	16f/	mu!	.	.
=100	=100	=100	=100	=100	=100	=100	=100
!	!	!	!	!	!	!	!LO:DY:a
2r	2r	.	.	2f/	bia-	.	>]
=101	=101	=101	=101	=101	=101	=101	=101
!	!	!	!LO:DY:b=2:t=ffp.	!LO:TX:a:i:t=a tempo 1.mo	!	!	!
[<2CC\ [<2C	8r	.	ffp	4c/	-da!!	.	.
.	(>8E</L 8G< 8c	.	.	.	.	.	.
.	8F</ 8A-X< 8d	.	.	4r	.	.	.
.	8G</J 8B-< 8e	.	.	.	.	.	.
!!LO:LB:g=original
=102	=102	=102	=102	=102	=102	=102	=102
!	!LO:TX:t=P:problem=mocowanie łuków	!	!	!	!	!	!
2CC\] 2C]	(<8A-X</L 8c-X 8f	.	.	2r	.	.	.
.	8An</ 8cn 8f#X	.	.	.	.	.	.
.	8B-</ 8d-X 8g	.	.	.	.	.	.
.	(8Bn</J 8dn 8g#X	.	.	.	.	.	.
=103	=103	=103	=103	=103	=103	=103	=103
*	*^	*	*	*	*	*	*
!	!	!	!	!	!	!	!	!LO:DY:b
8c\L)	8a/)	8d#X\L	.	.	8a/	Gwiaz-	.	p
8c#X\	16a/LL	8e\	.	.	16a/LL	-de-	.	.
.	16b-/JJ	.	.	.	16b-/JJ	.	.	.
8d\	8a/L	8f\J	.	.	8a/	-czki	.	.
8e\J)	8B-/J)) 8g	8rDyy	.	.	8g/	za-	.	.
*	*v	*v	*	*	*	*	*	*
=104	=104	=104	=104	=104	=104	=104	=104
(4FF/	16r	.	.	8g/	-lśni-	.	.
.	(16c/LL	.	.	.	.	.	.
.	16A/ 16f	.	.	8f/	-ły,	.	.
.	16c/JJ)	.	.	.	.	.	.
4F\	16r	.	.	4r	.	.	.
.	(16c/LL	.	.	.	.	.	.
.	16f/ 16a	.	.	.	.	.	.
.	16c/JJ)	.	.	.	.	.	.
=105	=105	=105	=105	=105	=105	=105	=105
8FF'/)	16r	.	.	8.cc\	o	.	.
.	(16f/LL	.	.	.	.	.	<
16r	16a/ 16cc	.	.	.	.	.	.
(16F\	16f/JJ)	.	.	16cc\	a-	.	[
8B-\L	16r	.	.	8.ff\	-nie-	.	>
.	(16f/LL	.	.	.	.	.	.
8d\J)	16b-/ 16ff	.	.	.	.	.	]
.	16f/JJ)	.	.	16dd\	-le	.	.
=106	=106	=106	=106	=106	=106	=106	=106
16f\	16r	.	.	8cc\	mi-	.	.
16r	(16f/LL	.	.	.	.	.	.
8r	16a/ 16cc	.	.	8a/	-ły,	.	.
.	16f/JJ)	.	.	.	.	.	.
(4C^/	16r	.	.	4r	.	.	.
.	(16c/LL	.	.	.	.	.	.
.	16f/ 16a	.	.	.	.	.	.
.	16c/JJ)	.	.	.	.	.	.
!!LO:PB:g=original
=107	=107	=107	=107	=107	=107	=107	=107
!LO:TX:t=P:problem=brak zakończenia łuku	!	!	!	!	!	!	!
8CC/)	16r	.	.	8g/	co	.	.
.	(16c/LL	.	.	.	.	.	.
8r	16B-/ 16e 16g	.	.	16g/LL	się	.	.
.	16c/JJ	.	.	16a/JJ	.	.	.
(4C/	16B-/LL 16e 16g	.	.	8.g/	na	.	.
.	16c/	.	.	.	.	.	.
.	16A/ 16d#X 16f#X	.	.	.	.	.	.
.	16c/JJ)	.	.	16f#X/	nie-	.	.
=108	=108	=108	=108	=108	=108	=108	=108
8CC/)	16r	.	.	8g/	-bio-	.	.
.	(16c/LL	.	.	.	.	.	.
8r	16B-/ 16e 16g	.	.	8c/	-sach	.	.
.	16c/JJ)	.	.	.	.	.	.
(4FF/	16r	.	.	4r	.	.	.
.	(16d/LL	.	.	.	.	.	.
.	16Bn/ 16f 16g#X	.	.	.	.	.	.
.	16d/JJ)	.	.	.	.	.	.
=109	=109	=109	=109	=109	=109	=109	=109
!	!	!	!LO:HP:a	!	!	!	!
(8F\L)	16r	.	>	8a\	z_twych	.	.
.	(16c/LL	.	.	.	.	.	.
16E\L	16A/ 16f	.	.	16cc\LL	łez	.	.
16D-X\JJ	16B-/JJ	.	.	16b-\JJ	.	.	.
!LO:TX:t=P:problem=mixed beam	!	!	!	!	!	!	!
8C\L	16c/LL	.	.	8.a\	u-	.	.
.	16cc/JJ)|	.	.	.	.	.	.
16CC'/Jk)	(16B-/LL 16e	.	]	.	.	.	.
16r	16c/JJ)	.	.	16g/	-ro-	.	.
=110	=110	=110	=110	=110	=110	=110	=110
(4FF/	16r	.	.	8g/	-dzi-	.	.
.	(16c/LL	.	.	.	.	.	.
.	16A/ 16f	.	.	8f/	-ły.	.	.
.	16c/JJ)	.	.	.	.	.	.
8F\)	16r	.	.	4r	.	.	.
.	(16c/LL	.	.	.	.	.	.
8r	16f/ 16a	.	.	.	.	.	.
.	16c/JJ)	.	.	.	.	.	.
=111	=111	=111	=111	=111	=111	=111	=111
!	!	!	!	!	!	!	!LO:DY:a
4FF/	16r	.	.	8cc\	Kie-	.	<
.	(16f/LL	.	<	.	.	.	.
.	16a/ 16cc	.	.	8cc\	-dy	.	.
.	16f/JJ	.	.	.	.	.	[
!	!	!	!	!	!	!	!LO:DY:a
8.BB-/L	16dd/LL 16ff	.	[ >	8.ff\	się	.	>
.	16f/	.	.	.	.	.	.
.	16b-/ 16dd	.	.	.	.	.	.
16D/Jk	16f/JJ)	.	]]	16dd\	wy-	.	]]
!!LO:LB:g=original
=112	=112	=112	=112	=112	=112	=112	=112
*^	*	*	*	*	*	*	*
8rB	(<4F\	16r	.	.	8cc\	-peł-	.	.
.	.	16c/LL	.	.	.	.	.	.
(4e-X^</	.	16a/ 16cc	.	.	8a/	-nią,	.	.
.	.	16c/JJ	.	.	.	.	.	.
.	4F#X\	16r	.	.	4r	.	.	.
.	.	16c/LL	.	.	.	.	.	.
[<8d/)	.	16a/	.	.	.	.	.	.
.	.	16c/JJ	.	.	.	.	.	.
*v	*v	*	*	*	*	*	*	*
=113	=113	=113	=113	=113	=113	=113	=113
(4G\) 4d]	16r	.	.	8b-\	bla-	.	.
.	(16B-/LL	.	.	.	.	.	.
.	16g/ 16b-	.	.	16b-\LL	-ski	.	.
.	16B-/JJ)	.	.	16cc\JJ	.	.	.
4D\ 4c	16r	.	.	8b-\	swe	.	.
.	(16d/LL	.	.	.	.	.	.
.	16f#X/ 16a	.	.	8a\	roz-	.	.
.	16d/JJ)	.	.	.	.	.	.
=114	=114	=114	=114	=114	=114	=114	=114
4G\ 4B-	16r	.	.	8a/	-sie-	.	.
*	*	*below	*	*	*	*	*
.	16d/LL	3	.	.	.	.	.
.	16B-/ 16g	.	.	8g/	-ją	.	.
.	16d/JJ	1	.	.	.	.	.
8GG/)	16b-/LL 16dd	.	.	4r	.	.	.
.	16d/	.	.	.	.	.	.
8r	16g/ 16b-	.	.	.	.	.	.
.	16d/JJ	.	.	.	.	.	.
=115	=115	=115	=115	=115	=115	=115	=115
8CC/	16r	.	.	8g/	je-	.	.
.	16c/LL	.	.	.	.	.	.
8r	16e/ 16b-	.	.	8g/	-szcze	.	.
.	16c/JJ	.	.	.	.	.	.
(4C\ 4G	16e/LL 16cc	.	.	8.b-/	się	.	.
.	16c/	.	.	.	.	.	.
.	16e/ 16b-	.	.	.	.	.	.
.	16c/JJ	.	.	16e/	do	.	.
=116	=116	=116	=116	=116	=116	=116	=116
8F\)	16r	.	.	8f/	cie-	.	.
.	16f/	.	.	.	.	.	.
8r	(16cc\LL 16ff	.	.	4a/	-bie	.	.
.	16a\JJ)	.	.	.	.	.	.
(4AA/	(16a/LL 16cc	.	.	.	.	.	.
.	16f/JJ)	.	.	.	.	.	.
.	(16f/LL 16a	.	.	8r	.	.	.
.	16c/JJ)	.	.	.	.	.	.
!!LO:LB:g=original
=117	=117	=117	=117	=117	=117	=117	=117
!	!	!	!	!LO:TX:a:i:t=ralent.	!	!	!
8BB-/)	16r	.	.	8.g/	szczę-	.	.
.	(16B-/LL	.	.	.	.	.	.
8r	16d-X/ 16f 16g	.	.	.	.	.	.
.	16B-/JJ)	.	.	16g/	-ściem	.	.
(>4CC/ 4C	16r	.	.	8.b-/	ro-	.	.
.	(16B-/LL	.	.	.	.	.	.
.	16c/ 16e 16g	.	.	.	.	.	.
.	16B-/JJ)	.	.	16e/	-ze-	.	.
=118	=118	=118	=118	=118	=118	=118	=118
!	!	!	!	!LO:TX:a:i:t=a tempo.	!	!	!
8FF/)	16r	.	.	8g/	-smie-	.	.
.	16A'/LL	.	.	.	.	.	.
8r	(16c/ 16f	.	.	8f/	-ją.	.	.
.	16a/JJ)	.	>	.	.	.	.
(4A\	(16f/LL 16a	.	.	4r	.	.	.
.	16cc/JJ)	.	.	.	.	.	.
.	(16a/LL 16cc	.	.	.	.	.	.
.	16aa/JJ)	.	]]	.	.	.	.
=119	=119	=119	=119	=119	=119	=119	=119
8AA\)	16r	.	.	8e/	a	.	.
!	!LO:TX:t=P:problem=mixed beam	!	!	!	!	!	!
.	(16A</LL	.	.	.	.	.	.
8r	16c#X\ 16g	.	.	16e/LL	ja	.	.
.	16A</JJ)	.	.	16f/JJ	.	.	.
8AA\	16r	.	.	8e/	so-	.	.
!	!LO:TX:t=P:problem=mixed beam	!	!	!	!	!	!
.	(16A</LL	.	.	.	.	.	.
8r	16d\ 16f	.	.	8d/	-bie	.	.
.	16A</JJ)	.	.	.	.	.	.
=120	=120	=120	=120	=120	=120	=120	=120
8AA\	16r	.	.	8d/	bę-	.	.
!	!LO:TX:t=P:problem=mixed beam	!	!	!	!	!	!
.	(16A</LL	.	.	.	.	.	.
8r	16c#X\ 16e	.	.	8c#X/	-dę	.	.
.	16A</JJ	.	.	.	.	.	.
!	!LO:TX:t=P:problem=mixed beam	!	!	!	!	!	!
8AA\	16c#\LL 16e 16a	.	.	4r	.	.	.
.	16A</	.	.	.	.	.	.
8r	16e\ 16g	.	.	.	.	.	.
.	16A</JJ)	.	.	.	.	.	.
=121	=121	=121	=121	=121	=121	=121	=121
8AA\	16r	.	.	8.d/	za	.	.
!	!LO:TX:t=P:problem=mixed beam	!	!	!	!	!	!
.	(16A</LL	.	.	.	.	.	.
!	!	!	!LO:DY:t=p.	!	!	!	!
8r	16d\ 16f	.	p	.	.	.	.
.	16a\JJ)	.	.	16f/	a-	.	.
8A\	(16f\LL 16a	.	.	8a\	-nio-	.	.
.	16dd\JJ)	.	.	.	.	.	.
8r	(16f\LL 16a 16dd	.	.	8dd\	-ła	.	.
.	16ff\JJ)	.	.	.	.	.	.
!!LO:LB:g=original
=122	=122	=122	=122	=122	=122	=122	=122
8AA/	16r	.	.	4dd\	cie-	.	.
.	(16e/LL	.	.	.	.	.	.
8r	16a/ 16ee	.	.	.	.	.	.
.	16e/JJ)	.	.	.	.	.	.
8A\	16r	.	.	8cc#X\	-niem	.	.
.	(16e/LL	.	.	.	.	.	.
8r	16A/ 16a	.	.	8r	.	.	.
.	16e/JJ)	.	.	.	.	.	.
=123	=123	=123	=123	=123	=123	=123	=123
!	!	!	!	!	!	!	!LO:DY:a:t=mf.
(4d\	16r	.	.	8dd\	pły-	.	mf
.	(16a/LL	.	.	.	.	.	.
.	16f#X/ 16dd	.	.	16dd\LL	-nął	.	.
.	16a/JJ	.	.	16ee\JJ	.	.	.
4GG\ 4G 4Bn	16r	.	.	8.dd\	u-	.	.
.	16g/LL	.	.	.	.	.	.
.	16f#/ 16dd	.	.	.	.	.	.
.	16g/JJ	.	.	16g/	-czu-	.	.
=124	=124	=124	=124	=124	=124	=124	=124
4C\ 4c	16r	.	.	8g/	-cia-	.	.
.	16g/LL	.	.	.	.	.	.
.	16e/ 16cc	.	.	4.cc\	-mi	.	.
.	16g/JJ	.	.	.	.	.	.
4FF\ 4F 4A	16r	.	.	.	.	.	.
.	16f/LL	.	.	.	.	.	.
.	16e-X/) 16cc	.	.	.	.	.	.
.	16f/JJ	.	.	.	.	.	.
=125	=125	=125	=125	=125	=125	=125	=125
!	!	!	!	!	!	!	!LO:DY:a:t=p.
4BB-\ 4B-	16r	.	.	8b-\	do-	.	p
!	!	!	!LO:HP:a	!	!	!	!
.	(16f/LL	.	>	.	.	.	.
.	16d/ 16b-	.	]	16b-\LL	-ga-	.	.
.	16dd/JJ)	.	.	16cc\JJ	.	.	.
4D\	16r	.	.	8.b-\	-niał	.	.
!	!	!	!LO:HP:a	!	!	!	!
.	(16d/LL	.	>	.	.	.	.
.	16c/ 16f#X	.	]	.	.	.	.
.	16a/JJ)	.	.	16a\	ma-	.	.
=126	=126	=126	=126	=126	=126	=126	=126
4G\	16r	.	.	8a/	-rze-	.	.
!	!	!	!LO:HP:a	!	!	!	!
.	(16d/LL	.	>	.	.	.	.
.	16B-/ 16g	.	]	8g/	-niem	.	.
.	16d/JJ)	.	.	.	.	.	.
8GG/)	16r	.	.	4r	.	.	.
!	!	!	!LO:HP:a	!	!	!	!
.	16d-X/LL	.	>	.	.	.	.
8r	16B-/ 16f 16g	.	]	.	.	.	.
.	16d-/JJ	.	.	.	.	.	.
!!LO:PB:g=original
=127	=127	=127	=127	=127	=127	=127	=127
8CC'/L	16r	.	.	8g/	Mo-	.	.
.	(16c/LL	.	.	.	.	.	.
8C'/J	16B-/ 16e 16g	.	.	16g/LL	-że	.	.
!	!	!	!	!LO:TX:a:t=crescendo et accelerando.:problem	!	!	!LO:DY:a
.	16c/JJ	.	.	16a/JJ	.	.	<
8CC'/L	16B-/LL 16e 16g	.	.	8g/	też,	.	.
.	16c/	.	.	.	.	.	.
8C'/J	16A/ 16d#X 16f#X	.	.	8f#X/	o	.	.
.	16c/JJ)	.	.	.	.	.	.
=128	=128	=128	=128	=128	=128	=128	=128
8CC'/L	16r	.	.	8a/	Bo-	.	.
.	(16c/LL	.	.	.	.	.	.
8C'/J	16B-/ 16e 16g	.	.	8g/	-że!	.	.
.	16c/JJ)	.	.	.	.	.	.
8CC'/L	16r	.	.	4r	.	.	.
.	(16d/LL	.	.	.	.	.	.
8C'/J	16Bn/ 16f 16g#X	.	.	.	.	.	.
.	16d/JJ)	.	.	.	.	.	.
=129	=129	=129	=129	=129	=129	=129	=129
8CC'/L	16r	.	.	8a/	te	.	.
.	(16d/LL	.	.	.	.	.	.
8C'/J	16c/ 16f 16a	.	.	16a/LL	gwiaz-	.	.
.	16d/JJ	.	.	16b-/JJ	.	.	.
8CC'/L	16c/LL 16f 16a	.	.	8a/	-de-	.	[
.	16d/	.	.	.	.	.	.
8C'/J	16Bn/ 16f 16g#X	.	.	8g#X/	-czki	.	.
.	16d/JJ)	.	.	.	.	.	.
=130	=130	=130	=130	=130	=130	=130	=130
8CC'/L	16r	.	.	8b-X/	bie-	.	.
.	(16c/LL	.	.	.	.	.	.
8C/J|	16A/ 16f 16a	.	.	4a/	-dne	.	.
.	16c/JJ)	.	.	.	.	.	.
!LO:TX:t=P:problem=mixed beam	!	!	!	!	!	!	!
8EE-X'/L	16r	.	.	.	.	.	.
.	(16c/LL	.	.	.	.	.	.
8E-X\J|	16f/ 16a	.	.	8r	.	.	.
.	16c/JJ)	.	.	.	.	.	.
=131	=131	=131	=131	=131	=131	=131	=131
*	*^	*	*	*	*	*	*
!LO:TX:t=P:problem=mixed beam	!	!	!	!	!	!	!	!
8DD'/L	16r	16rFyy	.	.	8b-\	przy-	.	.
.	(<16B-/LL	8.B-\	.	.	.	.	.	.
8D\J|	16b-/	.	.	.	16b-\LL	-pły-	.	.
.	16f/JJ)	.	.	.	16cc\JJ	.	.	.
!LO:TX:t=P:problem=mixed beam	!	!	!	!	!	!	!	!
8EE-X'/L	16r	16rAyy	.	.	8b-\	-ną	.	.
.	(<16c/LL	8.c\	.	.	.	.	.	.
8E-X\J|	16a/	.	.	.	8a\	ku	.	.
.	16f/JJ)	.	.	.	.	.	.	.
!!LO:LB:g=original
=132	=132	=132	=132	=132	=132	=132	=132	=132
!LO:TX:t=P:problem=mixed beam	!	!	!	!	!	!	!	!
8DD/L|	16r	16rF	.	.	8cc\	so-	.	.
.	(<16B-/LL	8.B-\	.	.	.	.	.	.
!	!	!	!	!	!	!	!	!LO:DY:a
8D\J|	16b-/	.	.	<	4b-\	-bie	.	<
.	16f/JJ)	.	.	.	.	.	.	.
!LO:TX:t=P:problem=mixed beam	!	!	!	!	!	!	!	!
8DD-X/L|	16r	16rAyy	.	.	.	.	.	.
.	(<16A-X/LL	8.A-\	.	.	.	.	.	.
8D-X\J|	16bn/	.	.	.	8bn\	i	.	.
.	16f/JJ)	.	.	.	.	.	.	.
=133	=133	=133	=133	=133	=133	=133	=133	=133
!LO:TX:t=P:problem=mixed beam	!	!	!	!	!	!	!	!
8CC/L|	16r	16rF	.	.	8dd\	zle-	.	.
.	(<16An/LL	8.An\	.	.	.	.	.	.
8C\J	16cc/	.	.	.	4cc\	-ją	.	.
.	16f/JJ)	.	.	.	.	.	.	.
8AAA/L|	16r	16rAyy	.	.	.	.	.	.
.	(<16en/LL	8.en\	.	.	.	.	.	.
8AA/J	16cc#X/	.	.	[	8cc#X\	się	.	[[
.	16g/JJ)	.	.	.	.	.	.	.
*	*v	*v	*	*	*	*	*	*
=134	=134	=134	=134	=134	=134	=134	=134
*ped	*	*	*	*	*	*	*
!	!LO:TX:t=P:problem=mixed beam	!	!LO:DY:t=f.	!	!	!	!LO:DY:a
N(4BBB-\; 4BB-	4ryy	.	f	[4ee;\	w_jed-	.	f
.	8qqD</L	.	.	.	.	.	.
.	8qqG</	.	.	.	.	.	.
.	8qqB-</	.	.	.	.	.	.
.	8qqc#X\	.	.	.	.	.	.
.	8qqd\	.	.	.	.	.	.
.	8qqg\	.	.	.	.	.	.
.	8qqb-\	.	.	.	.	.	.
.	8qqcc#X\J	.	.	.	.	.	.
4ryy	8.ee;\L)	.	.	8.ee\L]	.	.	.
.	32dd\JkkN)	.	.	32dd\Jkk	-ną,	.	.
.	32r;	.	.	32r;	.	.	.
*	*Xped	*	*	*	*	*	*
=135	=135	=135	=135	=135	=135	=135	=135
!	!	!	!	!LO:TX:a:i:t=lento.	!	!	!LO:DY:b:t=f.
2CC/ 2C	16B-/LL	.	f	8.dd\	przy-	.	f
.	16c/	.	.	.	.	.	.
.	16e/ 16g 16cc	.	.	.	.	.	.
.	16c/JJ	.	.	16cc\	-pły-	.	.
.	16B-/LL	.	.	8b-\	-ną	.	.
.	16c/	.	.	.	.	.	.
.	16B-/ 16e 16g	.	.	8g/	Ku	.	.
.	16G/JJ	.	.	.	.	.	.
=136	=136	=136	=136	=136	=136	=136	=136
8.C/L	16A/LL	.	.	8f/	so-	.	.
.	16c/	.	.	.	.	.	.
.	16f/ 16a 16cc	.	.	4a/	-bie	.	.
16C/Jk	16c/JJ	.	.	.	.	.	.
!LO:TX:t=P:problem=mixed beam	!	!	!	!	!	!	!
8F\L	16A/LL	.	.	.	.	.	.
.	16c/	.	.	.	.	.	.
8FF/J	16A/ 16f	.	.	8cc\	i	.	.
.	16F/JJ	.	.	.	.	.	.
!!LO:LB:g=original
=137	=137	=137	=137	=137	=137	=137	=137
!	!	!	!LO:DY:t=f.	!	!	!	!
N(2CC\ 2C	4ryy	.	f >	(4.dd\	zle-	.	.
!	!LO:TX:t=P:problem=mixed beam	!	!	!	!	!	!
.	8qqD</L	.	]	.	.	.	.
.	8qqG</	.	.	.	.	.	.
.	8qqB-</	.	.	.	.	.	.
.	8qqc#X\	.	.	.	.	.	.
.	8qqd\	.	.	.	.	.	.
.	8qqg\	.	.	.	.	.	.
.	8qqb-\J	.	.	.	.	.	.
.	8dd\N)	.	.	.	.	.	.
.	8r	.	.	8cc\)	.	.	.
=138	=138	=138	=138	=138	=138	=138	=138
!	!	!	!LO:DY:t=f.	!	!	!	!
N(2CC\ 2C	4ryy	.	f >	4..b-\	-ją	.	.
!	!LO:TX:t=P:problem=mixed beam	!	!	!	!	!	!
.	8qqE</L	.	]	.	.	.	.
.	8qqG</	.	.	.	.	.	.
.	8qqB-</	.	.	.	.	.	.
.	8qqBn</	.	.	.	.	.	.
.	8qqc\	.	.	.	.	.	.
.	8qqe\	.	.	.	.	.	.
.	8qqg\	.	.	.	.	.	.
.	8qqb-\	.	.	.	.	.	.
.	8qqcc\J	.	.	.	.	.	.
.	8ee\N)	.	.	.	.	.	.
.	8r;	.	.	.	.	.	.
!	!	!	!LO:DY:t=ppp.	!	!	!	!
.	.	.	ppp	16g/	się	.	.
=139	=139	=139	=139	=139	=139	=139	=139
1ryy	(>8FF<^\L	.	.	8b-/	w jed-	.	.
.	8qqC</L	.	.	.	.	.	.
.	8qqF</	.	.	.	.	.	.
.	8qqG</	.	.	.	.	.	.
.	8qqA</	.	.	.	.	.	.
.	8qqc\	.	.	.	.	.	.
.	8qqf\	.	.	.	.	.	.
.	8qqg\J	.	.	.	.	.	.
.	4qqa\)	.	.	.	.	.	.
.	(>8AA<^<\	.	.	8a/	-ne!	.	.
.	8qqE</L	.	.	.	.	.	.
.	8qqA</	.	.	.	.	.	.
.	8qqc#X</	.	.	.	.	.	.
.	8qqe\	.	.	.	.	.	.
.	8qqa\	.	.	.	.	.	.
.	8qqcc#X\	.	.	.	.	.	.
.	8qqdd\J	.	.	.	.	.	.
.	4qqee\)	.	.	.	.	.	.
.	(>8D<^\	.	.	4ryy	.	.	.
.	8qqF</L	.	.	.	.	.	.
.	8qqA</	.	.	.	.	.	.
.	8qqd\	.	.	.	.	.	.
.	8qqf\	.	.	.	.	.	.
.	8qqa\	.	.	.	.	.	.
.	8qqdd\	.	.	.	.	.	.
.	8qqee\	.	.	.	.	.	.
.	8qqff\J)	.	.	.	.	.	.
!!LO:LB:g=original
=-	=-	=-	=-	=-	=-	=-	=-
!LO:TX:b:t=per_den_do_si:problem=with extention lines	!	!	!	!	!	!	!
.	8C<^\J	.	.	.	.	.	.
!	!LO:TX:t=P:problem=mixed beam	!	!	!	!	!	!
.	8qqG<\L	.	.	.	.	.	.
.	8qqB-<\	.	.	.	.	.	.
.	8qqe\	.	.	.	.	.	.
.	8qqg\	.	.	.	.	.	.
.	8qqccn\	.	.	.	.	.	.
.	8qqee\	.	.	.	.	.	.
.	8qqff\J	.	.	.	.	.	.
.	4qqgg\	.	.	.	.	.	.
=-	=-	=-	=-	=-	=-	=-	=-
.	8F<^\L	.	.	2ryy	.	.	.
!	!LO:TX:t=P:problem=mixed beam	!	!	!	!	!	!
.	8qqA<\L	.	.	.	.	.	.
.	8qqcn<\	.	.	.	.	.	.
.	8qqe\	.	.	.	.	.	.
.	8qqg\	.	.	.	.	.	.
.	8qqa\	.	.	.	.	.	.
.	8qqcc\	.	.	.	.	.	.
.	8qqff\	.	.	.	.	.	.
.	8qqgg\J	.	.	.	.	.	.
.	4qqaa\	.	.	.	.	.	.
.	(>8A<^\	.	.	.	.	.	.
.	8qqe/L	.	.	.	.	.	.
.	8qqa/	.	.	.	.	.	.
.	8qqcc#X/	.	.	.	.	.	.
.	8qqee/	.	.	.	.	.	.
.	8qqaa/	.	.	.	.	.	.
.	8qqccc#X/	.	.	.	.	.	.
.	8qqddd/J	.	.	.	.	.	.
.	4qqeee\)	.	.	.	.	.	.
.	(>8d<^\	.	.	.	.	.	.
.	8qqf\L	.	.	.	.	.	.
.	8qqa-X\	.	.	.	.	.	.
.	8qqbn\	.	.	.	.	.	.
.	8qqdd\	.	.	.	.	.	.
.	8qqff\	.	.	.	.	.	.
.	8qqaa-X\	.	.	.	.	.	.
.	8qqddd\	.	.	.	.	.	.
.	8qqeee\J	.	.	.	.	.	.
.	4qqfff\)	.	.	.	.	.	.
.	(>8c<^\J	.	.	.	.	.	.
.	8qqg\L	.	.	.	.	.	.
.	8qqb-X\	.	.	.	.	.	.
.	8qqee\	.	.	.	.	.	.
.	8qqgg\	.	.	.	.	.	.
.	8qqcccn\	.	.	.	.	.	.
.	8qqeee\	.	.	.	.	.	.
.	8qqfff\J	.	.	.	.	.	.
.	4qqggg\)	.	.	.	.	.	.
=140	=140	=140	=140	=140	=140	=140	=140
N(2f>\	4ryy	.	.	2r	.	.	.
.	8qqa/L	.	.	.	.	.	.
.	8qqcc/	.	.	.	.	.	.
.	8qqff/	.	.	.	.	.	.
.	8qqaa/	.	.	.	.	.	.
.	8qqccc/	.	.	.	.	.	.
.	8qqfff/	.	.	.	.	.	.
.	8qqggg/J	.	.	.	.	.	.
.	4aaa/N)	.	.	.	.	.	.
=141	=141	=141	=141	=141	=141	=141	=141
N(2F\	4ryy	.	.	2r	.	.	.
!	!LO:TX:t=P:problem=mixed beam	!	!	!	!	!	!
.	8qqA</L	.	.	.	.	.	.
.	8qqc</	.	.	.	.	.	.
.	8qqf\	.	.	.	.	.	.
.	8qqa\	.	.	.	.	.	.
.	8qqcc\	.	.	.	.	.	.
.	8qqff\	.	.	.	.	.	.
.	8qqgg\J	.	.	.	.	.	.
.	4aa\N)	.	.	.	.	.	.
=142	=142	=142	=142	=142	=142	=142	=142
8FF\ 8C	8A/ 8f	.	.	2r	.	.	.
8r	8r	.	.	.	.	.	.
4r	4r	.	.	.	.	.	.
!!LO:PB:g=original
==	==	==	==	==	==	==	==
*-	*-	*-	*-	*-	*-	*-	*-
!!!system-decoration: s1[(s2,s3)]
!!!RDF**kern: < = below
!!!RDF**kern: > = above
!!!RDF**kern: N = linked
!!!RDF**kern: | = vertical stroke
!!!ENC: Marta Chmielewska
!!!END: 2021-04-15
!!!ENC: Marcin Jachim
!!!END: 2021-03-29
